src/symbolic/apps/system-file-manager-symbolic.svg

<svg xmlns="http://www.w3.org/2000/svg" width="16" height="16"><path d="M3 0c-.554 0-1 .446-1 1v2c0-.554.446-1 1-1h10c.554 0 1 .446 1 1V1c0-.554-.446-1-1-1zm0 3c-.554 0-1 .446-1 1v1h12V4c0-.554-.446-1-1-1zM1 6c-.554 0-1 .446-1 1v8c0 .554.446 1 1 1h14c.554 0 1-.446 1-1V7c0-.554-.446-1-1-1zm5.25 4h3.5c.139 0 .25.111.25.25v.5a.25.25 0 0 1-.25.25h-3.5a.249.249 0 0 1-.25-.25v-.5a.25.25 0 0 1 .25-.25z" fill="#444"/></svg>

<svg xmlns="http://www.w3.org/2000/svg" width="16" height="16" version="1.1">
 <path style="fill:#444444" d="M 3,0 C 2.446,0 2,0.446 2,1 V 3 C 2,2.446 2.446,2 3,2 H 13 C 13.554,2 14,2.446 14,3 V 1 C 14,0.446 13.554,0 13,0 Z M 3,3 C 2.446,3 2,3.446 2,4 V 5 H 14 V 4 C 14,3.446 13.554,3 13,3 Z M 1,6 C 0.446,6 0,6.446 0,7 V 15 C 0,15.554 0.446,16 1,16 H 15 C 15.554,16 16,15.554 16,15 V 7 C 16,6.446 15.554,6 15,6 Z M 6.25,10 H 9.75 C 9.889,10 10,10.111 10,10.25 V 10.75 C 10,10.889 9.888,11 9.75,11 H 6.25 C 6.111,11 6,10.889 6,10.75 V 10.25 C 6,10.111 6.112,10 6.25,10 Z"/>
</svg>
